X:431
T: Shang guangxi
N: C1466
O: China,Hunan, Shaodong
S: I, 539]
R: Shange. Jiaofu xinglu chang]
M: 2/4
L: 1/16
K: C
e3cegc2 | A2AAA4 | g2ege3g | c3ec4 |
c2AAA2eg | c3AA4 | e2A2cec2 | cAA6 | E2EEE4

@@@ Tune index: 6432
